!!!COM: Felix Mendelssohn
!!!CNT: Deutsch
!!!TXO: Deutsch
!!!OTL: Das Waldschloss
!!!LYR: Eichendorff
!!!ENC: Daniel Alt & Leigh VanHandel
!!!YOR: Sa2mmtliche Lieder fu2r eine Singstimme 
!!!YOR: Neu revidirt von Dr. L. Benda, Ausgabe fu2r mittlere Stimme
!!!YOR: Braunschweig. Henry Litolff's Verlag. Boston and New York: Arthur P. Schmidt.
!!!ODT: 1835/
**kern
*staff1
=1-
*clefG2
*k[f#]
*M3/4
2.r
=2
2.r
=3
2.r
=4
2.r
=5
4r
4r
8.r
{16e
=6
8.e
16g
8.g
16b
12b
12ee
12cc
=7
4b
4g}
4r
=8
{4e
8.g
16g
12a
12g
12a
=9
4b}
4r
8r
{8b
=10
8.dd
16cc
8.cc
16b
8a
8g#
=11
8.ee
16cc
4a}
8r
{8a
=12
8.dd
16cc
8.cc
16b
8.a
16g#
=13
2ee
4cc
=14
2b
8.g
16a
=15
2b
8.g
16a
=16
[2.b
=17
4b]}
4r
4r
=18
4r
4r
8.r
{16e
=19
8.e
16g
8.g
16b
12b
12ee
12cc
=20
4b
4g}
8.r
{16e
=21
8.e
16e
4g
12a
12g
12a
=22
4b}
4r
{4b
=23
8.dd
16cc
8.cc
16b
8.a
16g#
=24
8.ee
16cc
4a}
8r
{8a
=25
8dd
16dd
16cc
8.cc
16b
8.a
16g#
=26
2ee
4cc
=27
2b
8.g
16a
=28
2b
8.g
16a
=29
[2.b
=30
4b]}
4r
4r
=31
4r
4r
8.r
{16e
=32
8.e
16g
8.g
16b
12b
12ee
12cc
=33
4b
4g}
4r
=34
{4e
12g
12g
12g
12a
12g
12a
=35
4b}
4r
8r
{8b
=36
8.dd
16cc
8.cc
16b
8.a
16g#
=37
8.ee
16cc
4a}
8r
{8a
=38
8.dd
16cc
8.cc
16b
8.a
16g#
=39
2ee
4cc
=40
2b
8.g
16a
=41
2b
4b
=42
[2.e
=43
4e]}
4r
4r
==
*-